X:1
T:[ID 2-72a]
T:[ID 2-72a]
T:Bezeichnung standardisiert: Menuett Menuet 1. ex A. Dur In dieser Quelle auch als: Menuetto
T:Urheber unbekannt Erstbeleg: 1767 (Datum in der schriftlichen Quelle) Datum in der hier transkribierten schriftlichen Quelle: 1775
C:Urheber unbekannt
C:Erstbeleg: 1767 (Datum in der schriftlichen Quelle)
C:Datum in der hier transkribierten schriftlichen Quelle: 1775
L:1/8
M:3/4
K:A
V:1 treble 
V:1
 C2 C4 | c2 c4 | c2 cABG | A2 C4 |"^O)" EFGFGF | GB G4 |"^O)" EFGFGF | GB G4 | EfeAGF | G6 :: %10
 [CA]4 [B,=G]2 | [A,F][CA] F4 | G4 F2 | EG G4 |"^O)" A,B,CB,CB, | CE C4 |"^O)" A,B,CB,CB, | CE C4 | %18
 B,BAECB, | C6 :| %20

